X: 10
T: Maids Of Mitchelstown, The
Z: leprecawn
S: https://thesession.org/tunes/120#setting51295
R: reel
M: 4/4
L: 1/8
K: Ddor
D2AG EGG2 & x6 G,2 | (3ABc Gc cAGE & x2 G,6 | D2AG EGG2 & x6 G,2 | AcGE EDDC |
D2AG EGG2 & x4 G,4 | AcGc cAGE & x2 G,6 | D2AG EGG2 & x4 G,4 | (3ABc GE EDDC |
EGAB c2AG & G,4 E4 | Adde f2ed & x2 D2 A4| cAGE F3G & x4 A,4 | (3ABc GE EDDC |
(3EFG AB c2AG & G,4 E4 | Adde f2ed & x2 D2 A4 | cAGE F3G & x4 C4| (3ABc GE EDDC |

%-------------------- TUNE SEPARATOR --------------------%

